X:133
T:Per noun langui long dou camin
C:Trad.
C:Paraulo de Micoulau Saboly
C:
O:France
R:No?l
A:Provence
Z:Transcrit et/ou corrig? par Michel BELLON - 2005-09-24
Z:Pour toute observation mailto:galouvielle@free.fr
M:6/8
L:1/8
Q:3/8=80
K:F
(d^cd | A2A f2f | e3 def | d2e d2^c | !breath!d3) :| 
(=ccc | f2c c2c | A2A d2c | B2A G3 | !breath!A3) |: 
(ABG | A3) (ABG | A2)(A d2f | e2d d2^c | !breath!d3) :|
<end>
<start>
